icons/fill-new-office-tool-tag-setting.svg

<svg xmlns="http://www.w3.org/2000/svg" width="32px" height="32px" viewBox="0 0 32 32" version="1.1">
    <title>fill-new-office-tool-tag-setting</title>
    <g id="fill-new-office-tool-tag-setting" stroke-width="1" fill-rule="evenodd">
        <path d="M23.5,17.2886751 L28.5621778,20.2113249 C28.8715789,20.3899577 29.0621778,20.7200847 29.0621778,21.0773503 L29.0621778,26.9226497 C29.0621778,27.2799153 28.8715789,27.6100423 28.5621778,27.7886751 L23.5,30.7113249 C23.1905989,30.8899577 22.8094011,30.8899577 22.5,30.7113249 L17.4378222,27.7886751 C17.1284211,27.6100423 16.9378222,27.2799153 16.9378222,26.9226497 L16.9378222,21.0773503 C16.9378222,20.7200847 17.1284211,20.3899577 17.4378222,20.2113249 L22.5,17.2886751 C22.8094011,17.1100423 23.1905989,17.1100423 23.5,17.2886751 Z M16.6114475,1.47248216 L26.6114475,9.19975489 C26.8565073,9.38911925 27,9.68134141 27,9.99103989 L27,16.9997672 L24.5,15.5566243 C23.633677,15.0564525 22.5797251,15.0231077 21.6883849,15.45659 L21.5,15.5566243 L16.4378222,18.4792741 C15.5096189,19.0151724 14.9378222,20.0055535 14.9378222,21.0773503 L14.9378222,26.9226497 C14.9378222,27.9944465 15.5096189,28.9848276 16.4378222,29.5207259 L17.268,30 L6,30 C5.44771525,30 5,29.5522847 5,29 L5,9.99103989 C5,9.68134141 5.14349273,9.38911925 5.3885525,9.19975489 L15.3885525,1.47248216 C15.7486882,1.1941955 16.2513118,1.1941955 16.6114475,1.47248216 Z M23,22 C21.8954305,22 21,22.8954305 21,24 C21,25.1045695 21.8954305,26 23,26 C24.1045695,26 25,25.1045695 25,24 C25,22.8954305 24.1045695,22 23,22 Z M16,9 C14.3431458,9 13,10.3431458 13,12 C13,13.6568542 14.3431458,15 16,15 C17.6568542,15 19,13.6568542 19,12 C19,10.3431458 17.6568542,9 16,9 Z" id="&#24418;&#29366;" />
    </g>
</svg>

<svg xmlns="http://www.w3.org/2000/svg" viewBox="0 0 32 32"><path fill="currentColor" d="m23.5 17.289 5.062 2.922a1 1 0 0 1 .5.866v5.846a1 1 0 0 1-.5.866L23.5 30.71a1 1 0 0 1-1 0l-5.062-2.922a1 1 0 0 1-.5-.866v-5.846a1 1 0 0 1 .5-.866L22.5 17.29a1 1 0 0 1 1 0M16.611 1.472l10 7.728A1 1 0 0 1 27 9.99V17l-2.5-1.443a3 3 0 0 0-2.812-.1l-.188.1-5.062 2.922a3 3 0 0 0-1.5 2.598v5.846a3 3 0 0 0 1.5 2.598l.83.479H6a1 1 0 0 1-1-1V9.991a1 1 0 0 1 .389-.791l10-7.728a1 1 0 0 1 1.222 0M23 22a2 2 0 1 0 0 4 2 2 0 0 0 0-4M16 9a3 3 0 1 0 0 6 3 3 0 0 0 0-6"/></svg>
